packages/amis-ui/src/icons/invisible.svg

<?xml version="1.0" encoding="UTF-8"?>
<svg viewBox="0 0 16 16" version="1.1" xmlns="http://www.w3.org/2000/svg" xmlns:xlink="http://www.w3.org/1999/xlink">
     
    <g  stroke="none" stroke-width="1" fill="currentColor" fill-rule="evenodd">
        <g >
            <rect  stroke="none" fill="currentColor" opacity="0" x="0.5" y="0.5" width="15" height="15"></rect>
            <path d="M2.91972703,5.00035128 C3.15932221,5.56062137 3.48954828,6.0784548 3.89678565,6.53485922 C4.96673844,7.73914737 6.49518581,8.43995 8.14,8.43995 C9.76664693,8.43995 11.2813058,7.75315198 12.3523764,6.57033395 C12.6920742,6.19520277 12.9803798,5.7761243 13.209327,5.32420638 L13.3395085,5.04920376 L14.2544915,5.45269624 C13.9653387,6.10839593 13.572991,6.71219666 13.0936273,7.24156203 C12.7623988,7.60734835 12.3948705,7.93285848 11.9982387,8.21395897 L12.9566,9.87395 L12.0906,10.37395 L11.1412434,8.72942071 C10.3784723,9.11337429 9.54082663,9.35086388 8.66757967,9.41933209 L8.668,10.97185 L7.668,10.97185 L7.66735222,9.42343888 C6.75745885,9.35969244 5.88560233,9.11282413 5.09602954,8.70830726 L4.1485,10.34855 L3.2825,9.84855 L4.2424457,8.18636156 C3.84593988,7.9008387 3.4793171,7.57058753 3.14992355,7.19983732 C2.73988365,6.74029373 2.39560013,6.22662333 2.12776836,5.67339306 L2.00027297,5.39354872 L2.91972703,5.00035128 Z" ></path>
        </g>
    </g>
</svg>

<svg viewBox="0 0 16 16" xmlns="http://www.w3.org/2000/svg"><path d="M2.92 5c.24.56.57 1.078.977 1.535A5.655 5.655 0 0 0 8.14 8.44a5.664 5.664 0 0 0 4.212-1.87c.34-.375.628-.794.857-1.246l.13-.275.915.404a6.682 6.682 0 0 1-2.256 2.761l.959 1.66-.866.5-.95-1.645c-.763.384-1.6.622-2.473.69v1.553h-1V9.423a6.653 6.653 0 0 1-2.572-.715l-.947 1.64-.866-.5.96-1.662A6.694 6.694 0 0 1 3.15 7.2a6.638 6.638 0 0 1-1.022-1.527L2 5.393 2.92 5Z" fill="currentColor" fill-rule="evenodd"/></svg>
